; G-Code generated by Simplify3D(R) Version 3.0.2
; May 18, 2016 at 10:34:54 PM
; Settings Summary
;   processName,Process1
;   applyToModels,spacer
;   profileName,MakerGear M2 (24V V4 hotend) (modified)
;   profileVersion,2015-09-04 08:00:00
;   baseProfile,
;   printMaterial,PLA
;   printQuality,Medium
;   printExtruders,
;   extruderName,Primary Extruder
;   extruderToolheadNumber,0
;   extruderDiameter,0.35
;   extruderAutoWidth,0
;   extruderWidth,0.4
;   extrusionMultiplier,0.9
;   extruderUseRetract,1
;   extruderRetractionDistance,1
;   extruderExtraRestartDistance,0
;   extruderRetractionZLift,0
;   extruderRetractionSpeed,2400
;   extruderUseCoasting,0
;   extruderCoastingDistance,0.2
;   extruderUseWipe,0
;   extruderWipeDistance,5
;   primaryExtruder,0
;   layerHeight,0.2
;   topSolidLayers,3
;   bottomSolidLayers,3
;   perimeterOutlines,2
;   printPerimetersInsideOut,1
;   startPointOption,2
;   startPointOriginX,0
;   startPointOriginY,0
;   startPointOriginZ,300
;   sequentialIslands,0
;   spiralVaseMode,0
;   firstLayerHeightPercentage,90
;   firstLayerWidthPercentage,100
;   firstLayerUnderspeed,0.5
;   useRaft,0
;   raftExtruder,0
;   raftLayers,3
;   raftOffset,3
;   raftSeparationDistance,0.14
;   raftInfill,85
;   disableRaftBaseLayers,0
;   useSkirt,1
;   skirtExtruder,0
;   skirtLayers,1
;   skirtOutlines,2
;   skirtOffset,4
;   usePrimePillar,0
;   primePillarExtruder,999
;   primePillarWidth,12
;   primePillarLocation,7
;   primePillarSpeedMultiplier,1
;   useOozeShield,0
;   oozeShieldExtruder,999
;   oozeShieldOffset,2
;   oozeShieldOutlines,1
;   oozeShieldSidewallShape,1
;   oozeShieldSidewallAngle,30
;   oozeShieldSpeedMultiplier,1
;   infillExtruder,0
;   internalInfillPattern,Rectilinear
;   externalInfillPattern,Concentric
;   infillPercentage,25
;   outlineOverlapPercentage,15
;   infillExtrusionWidthPercentage,100
;   minInfillLength,5
;   infillLayerInterval,1
;   infillAngles,45,-45
;   overlapInfillAngles,0
;   generateSupport,0
;   supportExtruder,0
;   supportInfillPercentage,30
;   supportExtraInflation,0
;   denseSupportLayers,0
;   denseSupportInfillPercentage,70
;   supportLayerInterval,1
;   supportHorizontalPartOffset,0.3
;   supportUpperSeparationLayers,1
;   supportLowerSeparationLayers,1
;   supportType,0
;   supportGridSpacing,4
;   maxOverhangAngle,45
;   supportAngles,0
;   temperatureName,Primary Extruder,Heated Bed
;   temperatureNumber,0,2
;   temperatureSetpointCount,1,1
;   temperatureSetpointLayers,1,1
;   temperatureSetpointTemperatures,205,70
;   temperatureStabilizeAtStartup,1,1
;   temperatureHeatedBed,0,1
;   temperatureRelayBetweenLayers,0,0
;   temperatureRelayBetweenLoops,0,0
;   fanLayers,1,2
;   fanSpeeds,0,100
;   blipFanToFullPower,1
;   adjustSpeedForCooling,1
;   minSpeedLayerTime,15
;   minCoolingSpeedSlowdown,20
;   increaseFanForCooling,0
;   minFanLayerTime,45
;   maxCoolingFanSpeed,100
;   increaseFanForBridging,0
;   bridgingFanSpeed,100
;   use5D,1
;   relativeEdistances,0
;   allowEaxisZeroing,1
;   independentExtruderAxes,0
;   includeM10123,0
;   stickySupport,1
;   applyToolheadOffsets,0
;   gcodeXoffset,0
;   gcodeYoffset,0
;   gcodeZoffset,0
;   overrideMachineDefinition,1
;   machineTypeOverride,0
;   strokeXoverride,200
;   strokeYoverride,250
;   strokeZoverride,200
;   originOffsetXoverride,0
;   originOffsetYoverride,0
;   originOffsetZoverride,0
;   homeXdirOverride,-1
;   homeYdirOverride,-1
;   homeZdirOverride,-1
;   flipXoverride,1
;   flipYoverride,-1
;   flipZoverride,1
;   toolheadOffsets,0,0|0,0|0,0|0,0|0,0|0,0
;   overrideFirmwareConfiguration,1
;   firmwareTypeOverride,RepRap (Marlin/Repetier/Sprinter)
;   GPXconfigOverride,r2
;   baudRateOverride,115200
;   overridePrinterModels,1
;   printerModelsOverride,MakerGear_M2Single.stl
;   startingGcode,M108 S255 ; turn on M2 fans,G28 ; home all axes,G1 Y50 Z0.3 F9600 ; move forward to avoid binder clips,G1 X205 Z10 ; move off platform,G1 Z0.4 ; position nozzle,G92 E0 ; zero extruder,G1 E25 F225 ; purge nozzle,G92 E0 ; zero extruder,G1 X190 Z0.1 E1.0 F1200 ; slow wipe,G1 X180 Z0.25 ; lift
;   layerChangeGcode,
;   retractionGcode,
;   toolChangeGcode,
;   endingGcode,M104 S0 ; turn off extruder,M140 S0 ; turn off bed,G91 ; relative mode,G1 Z10 ; lift 10mm,G90 ; absolute mode,G28 X0 ; home X axis,M84 ; disable motors
;   createX3G,0
;   celebration,0
;   celebrationSong,Random Song
;   createMB5G,0
;   postProcessing,curl -k -H "X-Api-Key: C88CED27F6194098BA3BD4CE4A1BB103" -F "select=false" -F "print=false" -F "file=@[output_filepath]" "https://octopi.local/api/files/local"
;   defaultSpeed,4800
;   outlineUnderspeed,0.6
;   solidInfillUnderspeed,0.8
;   supportUnderspeed,0.8
;   rapidXYspeed,18000
;   rapidZspeed,1200
;   minBridgingArea,50
;   bridgingExtraInflation,0
;   bridgingExtrusionMultiplier,1
;   bridgingSpeedMultiplier,1
;   filamentDiameter,1.75
;   filamentPricePerKg,25
;   filamentDensity,1.25
;   useMinPrintHeight,0
;   minPrintHeight,0
;   useMaxPrintHeight,0
;   maxPrintHeight,0
;   useDiaphragm,0
;   diaphragmLayerInterval,1
;   robustSlicing,1
;   mergeAllIntoSolid,0
;   onlyRetractWhenCrossingOutline,1
;   retractBetweenLayers,1
;   useRetractionMinTravel,0
;   retractionMinTravel,3
;   retractWhileWiping,0
;   onlyWipeOutlines,1
;   avoidCrossingOutline,0
;   maxMovementDetourFactor,3
;   toolChangeRetractionDistance,12
;   toolChangeExtraRestartDistance,-0.5
;   toolChangeRetractionSpeed,600
;   allowThinWallGapFill,1
;   thinWallAllowedOverlapPercentage,10
;   horizontalSizeCompensation,0
G90
M82
M106 S0
M140 S70
M190 S70
M104 S205 T0
M109 S205 T0
M108 S255 ; turn on M2 fans
G28 ; home all axes
G1 Y50 Z0.3 F9600 ; move forward to avoid binder clips
G1 X205 Z10 ; move off platform
G1 Z0.4 ; position nozzle
G92 E0 ; zero extruder
G1 E25 F225 ; purge nozzle
G92 E0 ; zero extruder
G1 X190 Z0.1 E1.0 F1200 ; slow wipe
G1 X180 Z0.25 ; lift
G92 E0
G1 E-1.0000 F2400
G1 Z0.180 F1200
; layer 1, Z = 0.18
T0
; tool H0.200 W0.400
; skirt
G1 X74.753 Y110.491 F18000
G1 E0.0000 F720
G92 E0
G1 X74.974 Y110.400 E0.0071 F2400
G1 X125.026 Y110.400 E1.5054
G1 X125.247 Y110.491 E1.5126
G1 X127.759 Y113.003 E1.6189
G1 X127.850 Y113.224 E1.6260
G1 X127.850 Y136.776 E2.3311
G1 X127.759 Y136.997 E2.3382
G1 X125.247 Y139.509 E2.4446
G1 X125.026 Y139.600 E2.4517
G1 X74.974 Y139.600 E3.9500
G1 X74.753 Y139.509 E3.9571
G1 X72.241 Y136.997 E4.0635
G1 X72.150 Y136.776 E4.0706
G1 X72.150 Y113.224 E4.7756
G1 X72.241 Y113.003 E4.7828
G1 X74.753 Y110.491 E4.8891
G1 X74.980 Y110.830 F18000
G92 E0
G1 X75.053 Y110.800 E0.0024 F2400
G1 X124.947 Y110.800 E1.4959
G1 X125.020 Y110.830 E1.4983
G1 X127.420 Y113.230 E1.5998
G1 X127.450 Y113.303 E1.6022
G1 X127.450 Y136.697 E2.3025
G1 X127.420 Y136.770 E2.3049
G1 X125.020 Y139.170 E2.4064
G1 X124.947 Y139.200 E2.4088
G1 X75.053 Y139.200 E3.9023
G1 X74.980 Y139.170 E3.9047
G1 X72.580 Y136.770 E4.0063
G1 X72.550 Y136.697 E4.0087
G1 X72.550 Y113.303 E4.7089
G1 X72.580 Y113.230 E4.7113
G1 X74.980 Y110.830 E4.8129
G92 E0
G1 E-1.0000 F2400
; inner perimeter
G1 X77.350 Y115.600 F18000
G1 E0.0000 F2400
G92 E0
G1 X122.650 Y115.600 E1.3560 F1920
G1 X122.650 Y134.400 E1.9188
G1 X77.350 Y134.400 E3.2748
G1 X77.350 Y115.600 E3.8376
; outer perimeter
G1 X76.950 Y115.200 F18000
G92 E0
G1 X123.050 Y115.200 E1.3800 F1440
G1 X123.050 Y134.800 E1.9667
G1 X76.950 Y134.800 E3.3466
G1 X76.950 Y115.200 E3.9333
; solid layer
G1 X77.690 Y115.940 F18000
G92 E0
G1 X122.310 Y115.940 E1.3357 F1920
G1 X122.310 Y134.060 E1.8781
G1 X77.690 Y134.060 E3.2137
G1 X77.690 Y115.940 E3.7561
G1 X78.090 Y116.340 F18000
G92 E0
G1 X121.910 Y116.340 E1.3117 F1920
G1 X121.910 Y133.660 E1.8302
G1 X78.090 Y133.660 E3.1419
G1 X78.090 Y116.340 E3.6603
G1 X78.490 Y116.740 F18000
G92 E0
G1 X121.510 Y116.740 E1.2878 F1920
G1 X121.510 Y133.260 E1.7823
G1 X78.490 Y133.260 E3.0700
G1 X78.490 Y116.740 E3.5646
G1 X78.890 Y117.140 F18000
G92 E0
G1 X121.110 Y117.140 E1.2638 F1920
G1 X121.110 Y132.860 E1.7344
G1 X78.890 Y132.860 E2.9982
G1 X78.890 Y117.140 E3.4688
G1 X79.290 Y117.540 F18000
G92 E0
G1 X120.710 Y117.540 E1.2399 F1920
G1 X120.710 Y132.460 E1.6865
G1 X79.290 Y132.460 E2.9264
G1 X79.290 Y117.540 E3.3730
G1 X79.690 Y117.940 F18000
G92 E0
G1 X120.310 Y117.940 E1.2159 F1920
G1 X120.310 Y132.060 E1.6386
G1 X79.690 Y132.060 E2.8545
G1 X79.690 Y117.940 E3.2772
G1 X80.090 Y118.340 F18000
G92 E0
G1 X119.910 Y118.340 E1.1920 F1920
G1 X119.910 Y131.660 E1.5907
G1 X80.090 Y131.660 E2.7827
G1 X80.090 Y118.340 E3.1814
G1 X80.490 Y118.740 F18000
G92 E0
G1 X119.510 Y118.740 E1.1680 F1920
G1 X119.510 Y131.260 E1.5428
G1 X80.490 Y131.260 E2.7108
G1 X80.490 Y118.740 E3.0856
G1 X80.890 Y119.140 F18000
G92 E0
G1 X119.110 Y119.140 E1.1441 F1920
G1 X119.110 Y130.860 E1.4949
G1 X80.890 Y130.860 E2.6390
G1 X80.890 Y119.140 E2.9898
G1 X81.290 Y119.540 F18000
G92 E0
G1 X118.710 Y119.540 E1.1201 F1920
G1 X118.710 Y130.460 E1.4470
G1 X81.290 Y130.460 E2.5672
G1 X81.290 Y119.540 E2.8940
G1 X81.690 Y119.940 F18000
G92 E0
G1 X118.310 Y119.940 E1.0962 F1920
G1 X118.310 Y130.060 E1.3991
G1 X81.690 Y130.060 E2.4953
G1 X81.690 Y119.940 E2.7982
G1 X82.090 Y120.340 F18000
G92 E0
G1 X117.910 Y120.340 E1.0722 F1920
G1 X117.910 Y129.660 E1.3512
G1 X82.090 Y129.660 E2.4235
G1 X82.090 Y120.340 E2.7025
G1 X82.490 Y120.740 F18000
G92 E0
G1 X117.510 Y120.740 E1.0483 F1920
G1 X117.510 Y129.260 E1.3033
G1 X82.490 Y129.260 E2.3516
G1 X82.490 Y120.740 E2.6067
G1 X82.890 Y121.140 F18000
G92 E0
G1 X117.110 Y121.140 E1.0243 F1920
G1 X117.110 Y128.860 E1.2554
G1 X82.890 Y128.860 E2.2798
G1 X82.890 Y121.140 E2.5109
G1 X83.290 Y121.540 F18000
G92 E0
G1 X116.710 Y121.540 E1.0004 F1920
G1 X116.710 Y128.460 E1.2075
G1 X83.290 Y128.460 E2.2079
G1 X83.290 Y121.540 E2.4151
G1 X83.690 Y121.940 F18000
G92 E0
G1 X116.310 Y121.940 E0.9765 F1920
G1 X116.310 Y128.060 E1.1596
G1 X83.690 Y128.060 E2.1361
G1 X83.690 Y121.940 E2.3193
G1 X84.090 Y122.340 F18000
G92 E0
G1 X115.910 Y122.340 E0.9525 F1920
G1 X115.910 Y127.660 E1.1118
G1 X84.090 Y127.660 E2.0643
G1 X84.090 Y122.340 E2.2235
G1 X84.490 Y122.740 F18000
G92 E0
G1 X115.510 Y122.740 E0.9286 F1920
G1 X115.510 Y127.260 E1.0639
G1 X84.490 Y127.260 E1.9924
G1 X84.490 Y122.740 E2.1277
G1 X84.890 Y123.140 F18000
G92 E0
G1 X115.110 Y123.140 E0.9046 F1920
G1 X115.110 Y126.860 E1.0160
G1 X84.890 Y126.860 E1.9206
G1 X84.890 Y123.140 E2.0319
G1 X85.290 Y123.540 F18000
G92 E0
G1 X114.710 Y123.540 E0.8807 F1920
G1 X114.710 Y126.460 E0.9681
G1 X85.290 Y126.460 E1.8487
G1 X85.290 Y123.540 E1.9361
G1 X85.690 Y123.940 F18000
G92 E0
G1 X114.310 Y123.940 E0.8567 F1920
G1 X114.310 Y126.060 E0.9202
G1 X85.690 Y126.060 E1.7769
G1 X85.690 Y123.940 E1.8404
G1 X86.090 Y124.340 F18000
G92 E0
G1 X113.910 Y124.340 E0.8328 F1920
G1 X113.910 Y125.660 E0.8723
G1 X86.090 Y125.660 E1.7051
G1 X86.090 Y124.340 E1.7446
G1 X86.490 Y124.740 F18000
G92 E0
G1 X113.510 Y124.740 E0.8088 F1920
G1 X113.510 Y125.260 E0.8244
G1 X86.490 Y125.260 E1.6332
G1 X86.490 Y124.740 E1.6488
G92 E0
G1 E-1.0000 F2400
; layer 2, Z = 0.38
M106 S255
; inner perimeter
G1 X77.350 Y115.600 F18000
G1 Z0.380 F1200
G1 E0.0000 F2400
G92 E0
G1 X122.650 Y115.600 E1.3560 F3840
G1 X122.650 Y134.400 E1.9188
G1 X77.350 Y134.400 E3.2748
G1 X77.350 Y115.600 E3.8376
; outer perimeter
G1 X76.950 Y115.200 F18000
G92 E0
G1 X123.050 Y115.200 E1.3800 F2880
G1 X123.050 Y134.800 E1.9667
G1 X76.950 Y134.800 E3.3466
G1 X76.950 Y115.200 E3.9333
; solid layer
G1 X77.690 Y115.940 F18000
G92 E0
G1 X122.310 Y115.940 E1.3357 F3840
G1 X122.310 Y134.060 E1.8781
G1 X77.690 Y134.060 E3.2137
G1 X77.690 Y115.940 E3.7561
G1 X78.090 Y116.340 F18000
G92 E0
G1 X121.910 Y116.340 E1.3117 F3840
G1 X121.910 Y133.660 E1.8302
G1 X78.090 Y133.660 E3.1419
G1 X78.090 Y116.340 E3.6603
G1 X78.490 Y116.740 F18000
G92 E0
G1 X121.510 Y116.740 E1.2878 F3840
G1 X121.510 Y133.260 E1.7823
G1 X78.490 Y133.260 E3.0700
G1 X78.490 Y116.740 E3.5646
G1 X78.890 Y117.140 F18000
G92 E0
G1 X121.110 Y117.140 E1.2638 F3840
G1 X121.110 Y132.860 E1.7344
G1 X78.890 Y132.860 E2.9982
G1 X78.890 Y117.140 E3.4688
G1 X79.290 Y117.540 F18000
G92 E0
G1 X120.710 Y117.540 E1.2399 F3840
G1 X120.710 Y132.460 E1.6865
G1 X79.290 Y132.460 E2.9264
G1 X79.290 Y117.540 E3.3730
G1 X79.690 Y117.940 F18000
G92 E0
G1 X120.310 Y117.940 E1.2159 F3840
G1 X120.310 Y132.060 E1.6386
G1 X79.690 Y132.060 E2.8545
G1 X79.690 Y117.940 E3.2772
G1 X80.090 Y118.340 F18000
G92 E0
G1 X119.910 Y118.340 E1.1920 F3840
G1 X119.910 Y131.660 E1.5907
G1 X80.090 Y131.660 E2.7827
G1 X80.090 Y118.340 E3.1814
G1 X80.490 Y118.740 F18000
G92 E0
G1 X119.510 Y118.740 E1.1680 F3840
G1 X119.510 Y131.260 E1.5428
G1 X80.490 Y131.260 E2.7108
G1 X80.490 Y118.740 E3.0856
G1 X80.890 Y119.140 F18000
G92 E0
G1 X119.110 Y119.140 E1.1441 F3840
G1 X119.110 Y130.860 E1.4949
G1 X80.890 Y130.860 E2.6390
G1 X80.890 Y119.140 E2.9898
G1 X81.290 Y119.540 F18000
G92 E0
G1 X118.710 Y119.540 E1.1201 F3840
G1 X118.710 Y130.460 E1.4470
G1 X81.290 Y130.460 E2.5672
G1 X81.290 Y119.540 E2.8940
G1 X81.690 Y119.940 F18000
G92 E0
G1 X118.310 Y119.940 E1.0962 F3840
G1 X118.310 Y130.060 E1.3991
G1 X81.690 Y130.060 E2.4953
G1 X81.690 Y119.940 E2.7982
G1 X82.090 Y120.340 F18000
G92 E0
G1 X117.910 Y120.340 E1.0722 F3840
G1 X117.910 Y129.660 E1.3512
G1 X82.090 Y129.660 E2.4235
G1 X82.090 Y120.340 E2.7025
G1 X82.490 Y120.740 F18000
G92 E0
G1 X117.510 Y120.740 E1.0483 F3840
G1 X117.510 Y129.260 E1.3033
G1 X82.490 Y129.260 E2.3516
G1 X82.490 Y120.740 E2.6067
G1 X82.890 Y121.140 F18000
G92 E0
G1 X117.110 Y121.140 E1.0243 F3840
G1 X117.110 Y128.860 E1.2554
G1 X82.890 Y128.860 E2.2798
G1 X82.890 Y121.140 E2.5109
G1 X83.290 Y121.540 F18000
G92 E0
G1 X116.710 Y121.540 E1.0004 F3840
G1 X116.710 Y128.460 E1.2075
G1 X83.290 Y128.460 E2.2079
G1 X83.290 Y121.540 E2.4151
G1 X83.690 Y121.940 F18000
G92 E0
G1 X116.310 Y121.940 E0.9765 F3840
G1 X116.310 Y128.060 E1.1596
G1 X83.690 Y128.060 E2.1361
G1 X83.690 Y121.940 E2.3193
G1 X84.090 Y122.340 F18000
G92 E0
G1 X115.910 Y122.340 E0.9525 F3840
G1 X115.910 Y127.660 E1.1118
G1 X84.090 Y127.660 E2.0643
G1 X84.090 Y122.340 E2.2235
G1 X84.490 Y122.740 F18000
G92 E0
G1 X115.510 Y122.740 E0.9286 F3840
G1 X115.510 Y127.260 E1.0639
G1 X84.490 Y127.260 E1.9924
G1 X84.490 Y122.740 E2.1277
G1 X84.890 Y123.140 F18000
G92 E0
G1 X115.110 Y123.140 E0.9046 F3840
G1 X115.110 Y126.860 E1.0160
G1 X84.890 Y126.860 E1.9206
G1 X84.890 Y123.140 E2.0319
G1 X85.290 Y123.540 F18000
G92 E0
G1 X114.710 Y123.540 E0.8807 F3840
G1 X114.710 Y126.460 E0.9681
G1 X85.290 Y126.460 E1.8487
G1 X85.290 Y123.540 E1.9361
G1 X85.690 Y123.940 F18000
G92 E0
G1 X114.310 Y123.940 E0.8567 F3840
G1 X114.310 Y126.060 E0.9202
G1 X85.690 Y126.060 E1.7769
G1 X85.690 Y123.940 E1.8404
G1 X86.090 Y124.340 F18000
G92 E0
G1 X113.910 Y124.340 E0.8328 F3840
G1 X113.910 Y125.660 E0.8723
G1 X86.090 Y125.660 E1.7051
G1 X86.090 Y124.340 E1.7446
G1 X86.490 Y124.740 F18000
G92 E0
G1 X113.510 Y124.740 E0.8088 F3840
G1 X113.510 Y125.260 E0.8244
G1 X86.490 Y125.260 E1.6332
G1 X86.490 Y124.740 E1.6488
G92 E0
G1 E-1.0000 F2400
; layer 3, Z = 0.58
; inner perimeter
G1 X77.350 Y115.600 F18000
G1 Z0.580 F1200
G1 E0.0000 F2400
G92 E0
G1 X122.650 Y115.600 E1.3560 F3840
G1 X122.650 Y134.400 E1.9188
G1 X77.350 Y134.400 E3.2748
G1 X77.350 Y115.600 E3.8376
; outer perimeter
G1 X76.950 Y115.200 F18000
G92 E0
G1 X123.050 Y115.200 E1.3800 F2880
G1 X123.050 Y134.800 E1.9667
G1 X76.950 Y134.800 E3.3466
G1 X76.950 Y115.200 E3.9333
; solid layer
G1 X77.690 Y115.940 F18000
G92 E0
G1 X122.310 Y115.940 E1.3357 F3840
G1 X122.310 Y134.060 E1.8781
G1 X77.690 Y134.060 E3.2137
G1 X77.690 Y115.940 E3.7561
G1 X78.090 Y116.340 F18000
G92 E0
G1 X121.910 Y116.340 E1.3117 F3840
G1 X121.910 Y133.660 E1.8302
G1 X78.090 Y133.660 E3.1419
G1 X78.090 Y116.340 E3.6603
G1 X78.490 Y116.740 F18000
G92 E0
G1 X121.510 Y116.740 E1.2878 F3840
G1 X121.510 Y133.260 E1.7823
G1 X78.490 Y133.260 E3.0700
G1 X78.490 Y116.740 E3.5646
G1 X78.890 Y117.140 F18000
G92 E0
G1 X121.110 Y117.140 E1.2638 F3840
G1 X121.110 Y132.860 E1.7344
G1 X78.890 Y132.860 E2.9982
G1 X78.890 Y117.140 E3.4688
